22x22/apps/houdini.svg

<svg xmlns="http://www.w3.org/2000/svg" width="22" height="22" version="1">
 <path style="opacity:0.2" d="m 1.991211,0.5 h 18 c 0.554,0 1,0.446 1,1 v 18 c 0,0.554 -0.446,1 -1,1 H 7.3482524 L 4.0893619,19.7532 C 3.5493589,19.629455 2.4694426,18.927231 2.3070004,18.397582 L 0.991211,14.107397 V 1.5 c 0,-0.554 0.446,-1 1,-1 z"/>
 <path style="fill:#ff5722" d="m 1.991211,0 h 18 c 0.554,0 1,0.446 1,1 v 18 c 0,0.554 -0.446,1 -1,1 H 7.3482524 L 4.0893619,19.2532 C 3.5493589,19.129455 2.4694426,18.427231 2.3070004,17.897582 L 0.991211,13.607397 V 1 c 0,-0.554 0.446,-1 1,-1 z"/>
 <path style="opacity:0.2;fill:#f4f4f7" d="M 0.991211,1.5 V 1 c 0,-0.554 0.446,-1 1,-1 h 18 c 0.554,0 1,0.446 1,1 v 0.5 c 0,-0.554 -0.446,-1 -1,-1 h -18 c -0.554,0 -1,0.446 -1,1 z"/>
 <path style="opacity:0.2" d="M 6.9365234,3.5 C 6.4237769,3.49645 5.9093605,3.52023 5.5302734,3.5722655 3.9409024,3.7904315 2.4760031,4.316236 0.991211,5.192383 V 7.7822265 C 2.4797561,6.44959 4.4814245,5.5727335 6.5976565,5.5 6.7667195,5.49419 6.930736,5.493245 7.0908204,5.49805 8.21141,5.531615 9.127742,5.817938 10.054687,6.265628 c 1.861964,0.899277 3.227057,2.6104195 3.726563,4.670898 0.575631,2.37449 0.03898,4.92279 -1.353516,6.431641 -1.060373,1.148962 -2.987644,1.806699 -4.8222651,1.646484 -1.13223,-0.09888 -2.2683935,-0.478075 -3.098633,-1.036133 C 4.1634785,17.747723 3.5828767,17.184349 3.3339844,16.840823 2.6195975,15.854822 2.290731,14.815751 2.3828125,13.833987 c 0.1625217,-1.732754 1.4731097,-3.134831 3.5683594,-3.644531 0.602834,-0.14665 1.3177975,-0.209161 1.6728515,-0.145508 1.0236636,0.183522 1.8128076,1.248455 1.8095706,2.3125 -10e-4,0.323338 -0.01213,0.360263 -0.197266,0.734375 -0.456547,0.922589 -1.4971861,1.521096 -2.1877226,1.327149 -0.412032,-0.11573 -0.7436705,-0.675318 -0.841797,-1.265273 -0.055741,-0.3351 -0.1223239,-0.486352 -0.2529295,-0.578125 -0.430437,-0.302443 -1.167955,0.469977 -1.359375,1.422851 -0.1638285,0.815545 -0.028635,1.487707 0.457031,2.026992 0.332056,0.368713 0.9759861,0.735872 1.5869146,0.905273 0.2848679,0.07899 0.4289074,0.09082 1.1054684,0.09082 0.8770981,0 1.2638901,-0.0532 1.8361601,-0.325196 1.148379,-0.545819 2.05541,-1.772898 2.44043,-3.300781 0.42722,-1.695353 0.01088,-3.21405 -1.191407,-4.349609 C 10.042758,8.3022325 8.998183,7.820814 7.6386719,7.5751955 6.0131335,7.3134935 4.3140169,7.7494035 3.1162109,8.533203 0.8907412,10.011028 0.0845835,11.332017 0,14 0.01256,18.892101 3.4912109,21.5 7.7265625,21.5 14.192407,21.382438 16.611274,17.34904 16.97168,13.049805 17.099851,11.078087 16.590743,9.116837 15.273437,7.4589845 14.871345,6.9529425 14.015897,6.1312025 13.46875,5.723633 11.95972,4.5995365 10.235509,3.8828965 8.334961,3.591797 7.9604704,3.5344375 7.4492694,3.503555 6.9365234,3.5 Z"/>
 <path style="fill:#f4f4f7" d="M 6.9365234,3 C 6.4237769,2.99645 5.9093605,3.02023 5.5302734,3.0722655 3.9409024,3.2904315 2.4760031,3.816236 0.991211,4.692383 V 7.2822265 C 2.4797561,5.94959 4.4814245,5.0727335 6.5976565,5 6.7667195,4.99419 6.930736,4.993245 7.0908204,4.99805 8.21141,5.031615 9.127742,5.317938 10.054687,5.765628 c 1.861964,0.899277 3.227057,2.6104195 3.726563,4.670898 0.575631,2.37449 0.03898,4.92279 -1.353516,6.431641 -1.060373,1.148962 -2.987644,1.806699 -4.8222651,1.646484 -1.13223,-0.09888 -2.2683935,-0.478075 -3.098633,-1.036133 C 4.1634785,17.247723 3.5828767,16.684349 3.3339844,16.340823 2.6195975,15.354822 2.290731,14.315751 2.3828125,13.333987 2.5453342,11.601233 3.8559222,10.199156 5.9511719,9.689456 6.5540059,9.542806 7.2689694,9.480295 7.6240234,9.543948 c 1.0236636,0.183522 1.8128076,1.248455 1.8095706,2.3125 -10e-4,0.323338 -0.01213,0.360263 -0.197266,0.734375 -0.456547,0.922588 -1.4971861,1.521096 -2.1877226,1.327149 -0.412032,-0.11573 -0.7436705,-0.675318 -0.841797,-1.265273 -0.055741,-0.3351 -0.1223239,-0.486352 -0.2529295,-0.578125 -0.430437,-0.302443 -1.167955,0.469977 -1.359375,1.422851 -0.1638285,0.815545 -0.028635,1.487707 0.457031,2.026992 0.332056,0.368713 0.9759861,0.735872 1.5869146,0.905273 0.2848679,0.07899 0.4289074,0.09082 1.1054684,0.09082 0.8770981,0 1.2638901,-0.0532 1.8361601,-0.325196 1.148379,-0.545819 2.05541,-1.772898 2.44043,-3.300781 0.42722,-1.695353 0.01088,-3.21405 -1.191407,-4.349609 C 10.042758,7.8022325 8.998183,7.320814 7.6386719,7.0751955 6.0131335,6.8134935 4.3140169,7.2494035 3.1162109,8.033203 0.8907412,9.511028 0.0845835,10.832017 0,13.5 0.01256,18.392101 3.4912109,21 7.7265625,21 14.192407,20.882438 16.611274,16.84904 16.97168,12.549805 17.099851,10.578087 16.590743,8.616837 15.273437,6.9589845 14.871345,6.4529425 14.015897,5.6312025 13.46875,5.223633 11.95972,4.0995365 10.235509,3.3828965 8.334961,3.091797 7.9604704,3.0344375 7.4492694,3.003555 6.9365234,3 Z"/>
</svg>

<svg xmlns="http://www.w3.org/2000/svg" width="22" height="22" version="1"><path style="opacity:.2" d="M1.991.5h18c.554 0 1 .446 1 1v18c0 .554-.446 1-1 1H7.348l-3.259-.747c-.54-.124-1.62-.826-1.782-1.355l-1.316-4.29V1.5c0-.554.446-1 1-1z"/><path style="fill:#ff5722" d="M1.991 0h18c.554 0 1 .446 1 1v18c0 .554-.446 1-1 1H7.348l-3.259-.747c-.54-.124-1.62-.826-1.782-1.355l-1.316-4.29V1c0-.554.446-1 1-1z"/><path style="opacity:.2;fill:#f4f4f7" d="M.991 1.5V1c0-.554.446-1 1-1h18c.554 0 1 .446 1 1v.5c0-.554-.446-1-1-1h-18c-.554 0-1 .446-1 1z"/><path style="opacity:.2" d="M6.937 3.5c-.513-.004-1.028.02-1.407.072-1.59.218-3.054.744-4.539 1.62v2.59C2.48 6.45 4.481 5.572 6.598 5.5c.169-.006.333-.007.493-.002 1.12.034 2.037.32 2.964.768 1.862.899 3.227 2.61 3.726 4.67.576 2.375.04 4.923-1.353 6.432-1.06 1.15-2.988 1.807-4.823 1.647-1.132-.1-2.268-.478-3.098-1.036-.344-.231-.924-.795-1.173-1.138-.714-.986-1.043-2.025-.951-3.007.162-1.733 1.473-3.135 3.568-3.645.603-.146 1.318-.209 1.673-.145 1.024.183 1.813 1.248 1.81 2.312-.001.324-.013.36-.198.735-.456.922-1.497 1.52-2.187 1.327-.412-.116-.744-.675-.842-1.265-.056-.335-.123-.487-.253-.578-.43-.303-1.168.47-1.36 1.422-.163.816-.028 1.488.458 2.027.332.37.976.736 1.586.906.285.079.43.09 1.106.09.877 0 1.264-.053 1.836-.325 1.148-.546 2.055-1.773 2.44-3.3.428-1.696.011-3.215-1.19-4.35-.787-.743-1.832-1.224-3.191-1.47-1.626-.262-3.325.174-4.523.958C.891 10.011.085 11.332 0 14c.013 4.892 3.491 7.5 7.727 7.5 6.465-.118 8.884-4.151 9.245-8.45.128-1.972-.381-3.933-1.699-5.591-.402-.506-1.257-1.328-1.804-1.735a11.375 11.375 0 0 0-5.134-2.132A10.392 10.392 0 0 0 6.937 3.5z"/><path style="fill:#f4f4f7" d="M6.937 3c-.513-.004-1.028.02-1.407.072-1.59.218-3.054.744-4.539 1.62v2.59C2.48 5.95 4.481 5.072 6.598 5c.169-.006.333-.007.493-.002 1.12.034 2.037.32 2.964.768 1.862.899 3.227 2.61 3.726 4.67.576 2.375.04 4.923-1.353 6.432-1.06 1.15-2.988 1.807-4.823 1.647-1.132-.1-2.268-.478-3.098-1.036-.344-.231-.924-.795-1.173-1.138-.714-.986-1.043-2.025-.951-3.007.162-1.733 1.473-3.135 3.568-3.645.603-.146 1.318-.209 1.673-.145 1.024.183 1.813 1.248 1.81 2.312-.001.324-.013.36-.198.735-.456.922-1.497 1.52-2.187 1.327-.412-.116-.744-.675-.842-1.265-.056-.335-.123-.487-.253-.578-.43-.303-1.168.47-1.36 1.422-.163.816-.028 1.488.458 2.027.332.37.976.736 1.586.906.285.079.43.09 1.106.09.877 0 1.264-.053 1.836-.325 1.148-.546 2.055-1.773 2.44-3.3.428-1.696.011-3.215-1.19-4.35-.787-.743-1.832-1.224-3.191-1.47-1.626-.262-3.325.174-4.523.958C.891 9.511.085 10.832 0 13.5.013 18.392 3.491 21 7.727 21c6.465-.118 8.884-4.151 9.245-8.45.128-1.972-.381-3.933-1.699-5.591-.402-.506-1.257-1.328-1.804-1.735a11.375 11.375 0 0 0-5.134-2.132A10.392 10.392 0 0 0 6.937 3z"/></svg>
